SharedPackages/Infrastructure/DesignResourcesKitIcons/Sources/DesignResourcesKitIcons/DesignSystemImages.xcassets/Color/24px/Bookmark-Favorite-Color-24.imageset/Bookmark-Favorite-Color-24.svg

<svg width="24" height="24" viewBox="0 0 24 24" fill="none" xmlns="http://www.w3.org/2000/svg">
<path d="M14.4062 2.625H9.59375C7.2638 2.625 5.375 4.5138 5.375 6.84375V19.1322C5.375 20.748 7.11727 21.7638 8.52345 20.9679L10.9609 19.5882C11.6056 19.2233 12.3944 19.2233 13.0391 19.5882L15.4766 20.9679C16.8827 21.7638 18.625 20.748 18.625 19.1322V6.84375C18.625 4.5138 16.7362 2.625 14.4062 2.625Z" fill="#4397E0"/>
<path d="M11.4151 7.39209C11.625 6.8693 12.3651 6.8693 12.5751 7.3921L13.3024 9.20328C13.3918 9.4259 13.6007 9.57771 13.8401 9.59394L15.7874 9.72598C16.3495 9.76409 16.5782 10.468 16.1458 10.8292L14.648 12.0806C14.4639 12.2344 14.3841 12.48 14.4427 12.7127L14.9188 14.6055C15.0563 15.1518 14.4575 15.5868 13.9804 15.2873L12.3274 14.2495C12.1242 14.122 11.8659 14.122 11.6628 14.2495L10.0098 15.2873C9.53263 15.5868 8.93389 15.1518 9.07133 14.6055L9.5475 12.7127C9.60603 12.48 9.52623 12.2344 9.34212 12.0806L7.84434 10.8292C7.41201 10.468 7.64071 9.76409 8.20279 9.72598L10.1501 9.59394C10.3894 9.57771 10.5984 9.4259 10.6878 9.20328L11.4151 7.39209Z" fill="white"/>
<path d="M14.4062 2C17.0814 2 19.25 4.16862 19.25 6.84375V19.21C19.25 21.2852 17.0355 22.5919 15.2275 21.6221L15.1426 21.5742L12.7979 20.2129C12.3406 19.9474 11.7767 19.9452 11.3174 20.207L8.83887 21.6201C7.01599 22.6593 4.75 21.3424 4.75 19.2441V6.84375C4.75 4.16862 6.91862 2 9.59375 2H14.4062ZM9.59375 3.25C7.60898 3.25 6 4.85898 6 6.84375V19.2441C6 20.3832 7.23017 21.0983 8.21973 20.5342L10.6982 19.1211C11.5445 18.6387 12.5835 18.6426 13.4258 19.1318L15.7705 20.4932L15.8164 20.5195C16.7979 21.046 18 20.3365 18 19.21V6.84375C18 4.85898 16.391 3.25 14.4062 3.25H9.59375ZM10.2861 6.85352C10.9439 5.38226 13.0464 5.3822 13.7041 6.85352L13.7354 6.92676L14.3164 8.37305L15.8721 8.47852L15.9502 8.48535C17.5532 8.65587 18.2035 10.6571 17.0068 11.7373L16.9473 11.7881L15.751 12.7881L16.1309 14.3008L16.1484 14.377C16.4816 15.9542 14.7799 17.191 13.3828 16.3867L13.3154 16.3457L11.9951 15.5166L10.6748 16.3457C9.24344 17.2443 7.4472 15.9397 7.85938 14.3008L8.23926 12.7881L7.04297 11.7881C5.74605 10.7044 6.43195 8.59285 8.11816 8.47852L9.67383 8.37305L10.2549 6.92676L10.2861 6.85352ZM12.5752 7.39258C12.3653 6.8698 11.625 6.86981 11.415 7.39258L10.6875 9.20312L10.6699 9.24414C10.5725 9.4442 10.3746 9.57838 10.1504 9.59375L8.20312 9.72559C7.64106 9.76372 7.4124 10.4679 7.84473 10.8291L9.3418 12.0811C9.52583 12.2349 9.60636 12.4803 9.54785 12.7129L9.07129 14.6055C8.936 15.1433 9.51409 15.5732 9.9873 15.3008L10.0098 15.2871L11.6631 14.25C11.8663 14.1225 12.124 14.1225 12.3271 14.25L13.9805 15.2871C14.4501 15.5819 15.0377 15.1651 14.9248 14.6309L14.9189 14.6055L14.4424 12.7129C14.3839 12.4802 14.4643 12.2349 14.6484 12.0811L16.1455 10.8291C16.5711 10.4736 16.3564 9.78636 15.8135 9.72852L15.7871 9.72559L13.8398 9.59375C13.6155 9.57848 13.4178 9.44428 13.3203 9.24414L13.3027 9.20312L12.5752 7.39258Z" fill="#045EB2"/>
</svg>

<svg fill="none" viewBox="0 0 24 24" xmlns="http://www.w3.org/2000/svg">
  <path fill="url(#Bookmark-Favorite-Color-24_svg__a)" d="M14.406 2.625H9.594a4.219 4.219 0 0 0-4.219 4.219v12.288c0 1.616 1.742 2.632 3.148 1.836l2.438-1.38a2.11 2.11 0 0 1 2.078 0l2.438 1.38c1.406.796 3.148-.22 3.148-1.836V6.844a4.219 4.219 0 0 0-4.219-4.219Z"/>
  <path fill="url(#Bookmark-Favorite-Color-24_svg__b)" d="M10.698 19.12a2.735 2.735 0 0 1 2.728.012l2.344 1.361.046.027A1.484 1.484 0 0 0 18 19.21V6.844a3.594 3.594 0 0 0-3.594-3.594H9.594A3.594 3.594 0 0 0 6 6.844v12.4a1.484 1.484 0 0 0 2.22 1.29l2.478-1.413Zm8.552.09c0 2.075-2.214 3.382-4.022 2.412l-.086-.048-2.344-1.361a1.484 1.484 0 0 0-1.48-.006l-2.48 1.413c-1.822 1.04-4.088-.277-4.088-2.376v-12.4A4.844 4.844 0 0 1 9.594 2h4.812a4.844 4.844 0 0 1 4.844 4.844V19.21Z"/>
  <path fill="#fff" d="M11.415 7.392a.625.625 0 0 1 1.16 0l.727 1.811c.09.223.299.375.538.39l1.947.133a.625.625 0 0 1 .359 1.103l-1.498 1.252a.625.625 0 0 0-.205.632l.476 1.893a.625.625 0 0 1-.939.681l-1.653-1.038a.625.625 0 0 0-.664 0l-1.653 1.038a.625.625 0 0 1-.939-.682l.476-1.892a.625.625 0 0 0-.205-.632l-1.498-1.252a.625.625 0 0 1 .359-1.103l1.947-.132a.625.625 0 0 0 .538-.39l.727-1.812Z"/>
  <path fill="url(#Bookmark-Favorite-Color-24_svg__c)" d="M10.286 6.854c.657-1.472 2.76-1.472 3.418 0l.03.072.582 1.447 1.556.106.078.007c1.603.17 2.253 2.17 1.056 3.251l-.059.052-1.196 1 .38 1.511.018.077c.333 1.577-1.369 2.814-2.766 2.01l-.067-.041-1.321-.83-1.32.83c-1.432.899-3.228-.406-2.816-2.046l.38-1.512-1.196-1c-1.297-1.083-.611-3.195 1.075-3.31l1.556-.105.581-1.447.03-.072Zm2.289.538a.625.625 0 0 0-1.16 0l-.727 1.811-.018.041a.625.625 0 0 1-.52.35l-1.947.132a.625.625 0 0 0-.359 1.103l1.498 1.252a.623.623 0 0 1 .205.632l-.476 1.893a.625.625 0 0 0 .916.695l.023-.014 1.653-1.038a.625.625 0 0 1 .664 0l1.653 1.038a.625.625 0 0 0 .945-.656l-.006-.026-.476-1.892a.625.625 0 0 1 .205-.632l1.498-1.252a.625.625 0 0 0-.333-1.1l-.026-.003-1.947-.132a.625.625 0 0 1-.52-.35l-.018-.04-.727-1.812Z"/>
  <defs>
    <linearGradient id="Bookmark-Favorite-Color-24_svg__a" x1="12" x2="12" y1="2.625" y2="23.25" gradientUnits="userSpaceOnUse">
      <stop stop-color="#8FABF9"/>
      <stop offset="1" stop-color="#7295F6"/>
    </linearGradient>
    <linearGradient id="Bookmark-Favorite-Color-24_svg__b" x1="12" x2="12" y1="2.625" y2="23.25" gradientUnits="userSpaceOnUse">
      <stop stop-color="#3969EF"/>
      <stop offset="1" stop-color="#1E42A4"/>
    </linearGradient>
    <linearGradient id="Bookmark-Favorite-Color-24_svg__c" x1="11.995" x2="11.995" y1="7" y2="15.385" gradientUnits="userSpaceOnUse">
      <stop stop-color="#7295F6"/>
      <stop offset="1" stop-color="#557FF3"/>
    </linearGradient>
  </defs>
</svg>
